X:1
T:Title
%%score { ( 1 4 5 ) | ( 2 3 ) }
L:1/8
M:4/4
K:C
V:1 treble nm="Grand Piano"
V:4 treble 
V:5 treble 
V:2 bass 
V:3 bass 
V:1
 z4 z2[Q:1/4=100] [CE]>[DF] | [EG]>[EG] [EG]>[EG] [Ec]2 G2 | A>A A>[CGB] [CAc]2 [CFA]2 | %3
 [CEG]>[CEG] [CEA]>[CEA] [B,DG]>[B,DG] [A,D^F]>[A,DF] |[M:3/4] [B,DG]6 |[M:1/4] E>F | %6
[M:4/4] [EG]>[EG] [EG]>[EG] [Ec]2 G2 | A>A A>[GB] [Ac]2 [FA]2 | [EG]>[EG] [Gc]>[Ad] e>e d>d | %9
 [Ec]6 z2 | [Fd]6 z2 | [Ec]4 z4 | [FA]6 z2 |[M:3/4] [GB]6 |[M:1/4] E>F | %15
[M:4/4] [EG]>[EG] [EG]>[EG] [Ec]2 G2 | A>A A>[GB] [Ac]2 [FA]2 | [EG]>[EG] [Gc]>[Ad] e>e d>d | %18
[M:8/4] [Ec]8 z8 |] %19
V:2
 z4 z2 [C,G,]2 | [C,C]>[C,C] [C,C]>[C,C] [C,G,]2 [E,C]2 | [F,CF]>[F,CF] [F,CF]>F, F,2 F,2 | %3
 C,>C, A,,>A,, D,>D, D,>D, |[M:3/4] G,2 G,>G, G,>F, |[M:1/4] [E,C]>[D,D] | %6
[M:4/4] [C,C]>[C,C] [C,C]>[C,C] [C,G,]2 [E,C]2 | [F,CF]>[F,CF] [F,CF]>[F,C] [F,C]2 [F,C]2 | %8
 [C,C]>[C,C] [E,C]>[F,C][K:treble] [G,CG]>[G,CG] [G,B,F]>[G,B,F] | [C,C]6 z2 | %10
 [G,B,]>G, G,>G, z z/[K:treble] F/ [G,CG]>[G,F] | [C,G,]>C, C,>C, C,2 z2 | %12
 F,>F, F,>F, z z/ [A,F]/ A,>D |[M:3/4] G,>G, G,>G, G,>F, |[M:1/4] [E,C]>[D,D] | %15
[M:4/4] [C,C]>[C,C] [C,C]>[C,C] [C,G,]2 [E,C]2 | [F,CF]>[F,CF] [F,CF]>[F,C] [F,C]2 [F,C]2 | %17
 [C,C]>[C,C] [E,C]>[F,C][K:treble] [G,CG]>[G,CG] [G,B,F]>[G,B,F] |[M:8/4][K:bass] [C,C]8 z8 |] %19
V:3
 x8 | x8 | x8 | x8 |[M:3/4] x6 |[M:1/4] G,2 |[M:4/4] x8 | x8 | x4[K:treble] x4 | x8 | %10
 z4 G,2[K:treble] z2 | x8 | z4 F,2 D,2 |[M:3/4] x6 |[M:1/4] G,2 |[M:4/4] x8 | x8 | %17
 x4[K:treble] x4 |[M:8/4][K:bass] x16 |] %19
V:4
 x8 | x8 | x8 | x8 |[M:3/4] x6 |[M:1/4] x2 |[M:4/4] x8 | x8 | x8 | x8 | %10
 z z/ B,/ B,>B, z z/ d/ e>d | z z/ G,/ G,>G, [CEG]2 z2 | C>C C>C C>c [^Fd]>[Fc] | %13
[M:3/4] D>D D>D B,2 |[M:1/4] x2 |[M:4/4] x8 | x8 | x8 |[M:8/4] x16 |] %19
V:5
 x8 | x8 | x8 | x8 |[M:3/4] x6 |[M:1/4] x2 |[M:4/4] x8 | x8 | x8 | x8 | z4 B,2 z2 | x8 | x8 | %13
[M:3/4] x6 |[M:1/4] x2 |[M:4/4] x8 | x8 | x8 |[M:8/4] x16 |] %19

